X: 448
T: A Bunch of Chickens
B: jims roots
M:2/4
L:1/8
R: Reel
Q: 1/4=100
K:G
V:1 
|: DF | "G"G2DG EGDC | B,DGB d2Bd | edBd "C"cBAG | "D"FGAB c2BA |
"G"G2DG EGDC | B,DGB d2Bd | edBd "C"cBcA | [1 "D"FDEF "G"G2 :| [2 "D"FDEF "G"[G4B,]||
|: "G"Bd2e dBAG | Bd2 b[g4d] | Bd2e dBGA | "D"FA[FA][FB] [c2F][c2F] |
"G"Bd2e dBGA | Bd2 b[g4d] |  Bd2e dBGA | "D"BAFD "G"[G2B,] :|]
% abcbook-tune_id 6298c2459c7be1daf63480e0


% abcbook-boost 0
% abcbook-tablature 
% abcbook-transpose 
% abcbook-lastupdated 1654178373584
% abcbook-soundfonts 
% abcbook-repeats 1


